X:0190
M:C
L:1/8
Q:1/2=90
K:E Minor
 BA|GFGE g2Tfe|dBGB c2TBA|GFGE   DEFA|d2A2 A2
 Bd|e3 f efge |d2B2 B2 AB|d^cde  defe|d2A2 A2
 Bd|edef g2Tfe|dBGB c2 BA|GFGE   DEFA|G2E2 E2:|
 BA|BGEG BGEG |BAGF E2TFG|AFDF   AFDF|AGFE D2
 Bd|edef efge |d2B2 BAB^c|d^cde  defe|d2A2 A2
 Bd|edef egfe |dBGB AcBA |GFGE   DEFA|G2E2 E2:|

